img/sponsore2.svg

<svg width="93" height="64" viewBox="0 0 93 64" fill="none" xmlns="http://www.w3.org/2000/svg">
<path d="M59.4694 0C59.7405 0 60.0117 0 60.2828 0C58.5656 3.23661 58.9723 5.47033 59.4242 7.70405C59.6953 9.20839 60.0117 10.7127 59.5146 12.6274C56.1254 12.6274 52.9621 13.4479 50.1603 14.9067C49.5729 12.9465 48.4883 11.7156 47.4038 10.5304C45.9577 8.93488 44.5568 7.29378 44.5568 3.64689C48.9854 1.322 54.0918 0 59.4694 0ZM61.7289 0.0911722C67.016 0.455861 71.9417 2.05138 76.2347 4.6042C73.1618 6.60999 72.484 8.75253 71.7609 10.8951C71.2638 12.3538 70.8119 13.8126 69.4563 15.2258C66.8805 13.767 63.9431 12.8553 60.7799 12.6729C61.2318 10.6671 60.9606 9.07164 60.6443 7.47612C60.2828 5.33357 59.8761 3.23661 61.7289 0.0911722ZM77.4548 5.37916C81.793 8.2055 85.4082 12.0347 88.0292 16.5933C84.414 16.8213 82.742 18.3256 81.07 19.8755C79.9402 20.924 78.8105 21.9269 76.9577 22.5195C75.3309 19.8755 73.1618 17.6418 70.586 15.9551C71.9417 14.4508 72.484 12.9009 72.981 11.3509C73.6589 9.25398 74.3367 7.20261 77.4548 5.37916ZM88.7522 17.8242C90.1982 20.5593 91.2376 23.568 91.8703 26.7135H78.9461C78.5845 25.665 78.1327 24.6165 77.6356 23.6136C79.5787 22.9754 80.7536 21.8813 81.9286 20.7873C83.5102 19.3741 85.0918 17.9153 88.7522 17.8242ZM77.4548 26.7135H41.484C44.1501 19.3285 51.1997 14.0405 59.4694 14.0405C67.7391 14.0405 74.7886 19.3285 77.4548 26.7135ZM40.0379 26.7135H27.1137C27.7915 23.2489 29.0117 20.0123 30.6837 17.0492C32.7172 20.1035 34.8411 20.7417 37.0102 21.4255C38.4563 21.8813 39.9023 22.3372 41.3484 23.6592C40.8061 24.6165 40.3542 25.665 40.0379 26.7135ZM31.3615 15.7728C34.2988 11.0318 38.4111 7.06585 43.2464 4.28509C43.4271 7.93198 44.9184 9.66426 46.4096 11.3509C47.4038 12.4906 48.4431 13.6302 48.9854 15.5449C46.1385 17.2771 43.7434 19.6476 42.0262 22.474C40.4898 21.1064 38.9534 20.6505 37.4169 20.1491C35.3382 19.5564 33.3047 18.9182 31.3615 15.7728Z" fill="black" fill-opacity="0.3"/>
<path d="M0 52.2872H10.8455V48.3213H3.75073V20.5137H0V52.2872ZM27.0233 45.9964C27.0233 50.6917 28.7857 52.6975 33.0335 52.6975C37.2813 52.6975 39.0889 50.6917 39.0889 45.9964V30.953H35.4286V46.2243C35.4286 48.1845 34.6152 49.1874 33.0335 49.1874C31.4519 49.1874 30.6385 48.1845 30.6385 46.2243V30.953H27.0233V45.9964ZM43.0656 52.2872H46.8615V37.4718C46.8615 35.3292 47.6749 34.2352 49.3017 34.2352C51.2449 34.2352 51.6968 35.4204 51.6968 37.9732V52.3328H55.4475V37.4718C55.4475 35.3292 56.3061 34.2352 57.9781 34.2352C60.0117 34.2352 60.4184 35.4204 60.4184 37.9732V52.3328H64.2143V36.0586C64.2143 32.5029 62.8134 30.7706 59.7405 30.7706C57.7974 30.7706 56.3061 31.6367 55.1764 33.369C54.137 31.5912 52.8717 30.7706 51.0189 30.7706C49.121 30.7706 47.7653 31.5912 46.8163 33.1411V30.9985H43.0656V52.2872ZM71.0831 41.6201C71.0831 36.6512 71.6706 34.2352 73.7945 34.2352C75.9184 34.2352 76.5058 36.6512 76.5058 41.6201C76.5058 46.5434 75.8732 49.0506 73.7945 49.0506C71.7157 49.0506 71.0831 46.589 71.0831 41.6201ZM76.3703 52.2872H79.9854V30.953H76.3703V33.0043C75.3761 31.3176 74.156 30.5427 72.484 30.5427C69.2303 30.5427 67.4679 34.2351 67.4679 41.5745C67.4679 48.9139 69.2303 52.6519 72.484 52.6519C74.156 52.6519 75.3761 51.8314 76.3703 50.1447V52.2872ZM83.8717 52.2872H87.5321V39.432C87.5321 36.1954 88.8426 34.691 91.6895 34.691H92.3222V30.5427C90.1079 30.6794 88.481 31.6823 87.4417 34.0528V30.953H83.8717V52.2872ZM14.0087 52.2872H24.8542V48.3213H17.7595V20.5137H14.0087V52.2872ZM90.7405 49.1418C90.1531 49.1418 89.6108 49.3697 89.1589 49.78C88.707 50.2359 88.481 50.7829 88.481 51.3755C88.481 51.9681 88.707 52.5152 89.1137 52.971C89.5204 53.4269 90.1079 53.6548 90.6953 53.6548C91.2828 53.6548 91.8251 53.4269 92.277 52.971C92.6837 52.5608 92.9548 52.0137 92.9548 51.3755C92.9548 50.7829 92.7289 50.2359 92.3222 49.78C91.9155 49.3697 91.328 49.1418 90.7405 49.1418ZM90.7405 49.4609C91.2828 49.4609 91.7347 49.6433 92.0962 50.0535C92.4577 50.4182 92.6385 50.8741 92.6385 51.4211C92.6385 51.9226 92.4577 52.424 92.0962 52.7431C91.7347 53.1078 91.2376 53.2901 90.6953 53.2901C90.1982 53.2901 89.7464 53.0622 89.3848 52.6975C89.0233 52.3328 88.8426 51.8314 88.8426 51.3299C88.8426 50.8285 89.0685 50.327 89.43 49.9624C89.7464 49.6433 90.1982 49.4609 90.7405 49.4609ZM89.8367 50.0991V52.6519H90.379V51.6035H90.7857L91.2828 52.6519H91.8703L91.328 51.5123C91.6895 51.4211 91.8703 51.1932 91.8703 50.8285C91.8703 50.3726 91.5087 50.1447 90.7857 50.1447H89.8367V50.0991ZM90.379 50.4182H90.6953C91.102 50.4182 91.2828 50.555 91.2828 50.8285C91.2828 51.102 91.102 51.2388 90.6953 51.2388H90.379V50.4182ZM27.656 56.4356L28.9665 62.9088H30.1414L30.8644 59.3075C30.9096 59.0796 30.9548 58.5781 31.0452 57.8488C31.0904 58.487 31.1356 58.9884 31.1808 59.3075L31.8586 62.8632H32.9883L34.2988 56.39H33.0335L32.5364 59.4899C32.4461 60.1281 32.4009 60.7207 32.4009 61.2677L31.5423 56.3444H30.4577L29.5991 61.2677C29.5539 60.4927 29.5087 59.8545 29.4184 59.3075L28.9665 56.39H27.656V56.4356ZM36.5583 62.9544H37.8688V56.4812H36.5583V62.9544ZM40.3542 62.9544H41.5292V60.2192C41.5292 59.4899 41.5292 58.8061 41.4388 58.2134C41.6195 58.8061 41.7099 59.1708 41.7551 59.3075L43.156 62.9544H44.3309V56.4812H43.156V58.9884C43.156 59.6722 43.2464 60.4472 43.3367 61.3133C43.156 60.6295 43.0204 60.1736 42.93 59.9913L41.6195 56.4812H40.309V62.9544H40.3542ZM46.9971 62.9544H47.9461C48.7595 62.9544 49.3921 62.9088 49.9344 62.4529C50.7026 61.8603 51.0641 60.9486 51.0641 59.7178C51.0641 57.5297 50.07 56.4812 48.1268 56.4812H46.9971V62.9544ZM48.2624 61.7236V57.6208H48.3528C49.3017 57.6208 49.7988 58.3046 49.7988 59.7178C49.7988 61.0398 49.3017 61.7236 48.398 61.7236H48.2624ZM57.7522 59.809C57.7522 57.6208 56.8484 56.39 55.4927 56.39C54.137 56.39 53.2332 57.6208 53.2332 59.7178C53.2332 61.8147 54.0918 63.0456 55.4927 63.0456C56.8484 63 57.7522 61.8147 57.7522 59.809ZM55.4927 61.7692C54.8149 61.7692 54.4985 61.0854 54.4985 59.6722C54.4985 58.259 54.8149 57.5752 55.4927 57.5752C56.1706 57.5752 56.4869 58.259 56.4869 59.6722C56.4869 61.0854 56.1706 61.7692 55.4927 61.7692ZM59.9213 56.4356L61.2318 62.9088H62.4067L63.1297 59.3075C63.1749 59.0796 63.2201 58.5781 63.3105 57.8488C63.3557 58.487 63.4009 58.9884 63.4461 59.3075L64.1239 62.8632H65.2536L66.5641 56.39H65.2988L64.8017 59.4899C64.7114 60.1281 64.6662 60.7207 64.6662 61.2677L63.8076 56.3444H62.723L61.8644 61.2677C61.8192 60.4927 61.7741 59.8545 61.6837 59.3075L61.2318 56.39H59.9213V56.4356ZM85.7245 62.9544H87.0802L87.3061 59.9457C87.3513 59.2163 87.4417 58.4414 87.4417 57.6208L88.2551 62.9088H89.2493L90.1531 57.6208C90.1531 58.5325 90.1982 59.2619 90.2434 59.8545L90.379 62.8632H91.7347L91.1472 56.39H89.43L88.9781 58.8517C88.9329 59.2163 88.8426 59.9001 88.7522 60.9486C88.707 60.2192 88.6166 59.5354 88.5262 58.8517L88.1647 56.39H86.4475L85.7245 62.9544ZM81.0248 62.9544H83.7362V61.678H82.2901V56.4356H81.0248V62.9544ZM77.1837 62.9544H78.4942V56.4812H77.1837V62.9544ZM72.1676 62.9544H73.4329V60.2192H74.8338V59.034H73.4329V57.6664H74.9694V56.4812H72.2128V62.9544H72.1676Z" fill="black" fill-opacity="0.3"/>
</svg>

<svg width="93" height="64" viewBox="0 0 93 64" fill="none" xmlns="http://www.w3.org/2000/svg"><path d="M59.47 0h.813c-1.717 3.237-1.31 5.47-.859 7.704.271 1.504.588 3.009.09 4.923-3.389 0-6.552.82-9.354 2.28-.587-1.96-1.672-3.191-2.756-4.377-1.446-1.595-2.847-3.236-2.847-6.883C48.985 1.322 54.092 0 59.469 0zm2.259.091a32.7 32.7 0 0114.506 4.513c-3.073 2.006-3.751 4.149-4.474 6.291-.497 1.459-.95 2.918-2.305 4.33a19.867 19.867 0 00-8.676-2.552c.452-2.006.18-3.601-.136-5.197-.361-2.142-.768-4.24 1.085-7.385zM77.455 5.38a32.954 32.954 0 0110.574 11.214c-3.615.228-5.287 1.733-6.959 3.282-1.13 1.049-2.26 2.052-4.112 2.645a20.952 20.952 0 00-6.372-6.565c1.356-1.504 1.898-3.054 2.395-4.604.678-2.097 1.356-4.148 4.474-5.972zm11.297 12.445c1.446 2.735 2.486 5.744 3.118 8.89H78.946a26.51 26.51 0 00-1.31-3.1c1.943-.639 3.118-1.733 4.293-2.827 1.581-1.413 3.163-2.872 6.823-2.963zm-11.297 8.89H41.484C44.15 19.328 51.2 14.04 59.469 14.04c8.27 0 15.32 5.287 17.986 12.672zm-37.417 0H27.114a32.184 32.184 0 013.57-9.665c2.033 3.055 4.157 3.693 6.326 4.377 1.446.455 2.892.911 4.338 2.233a15.158 15.158 0 00-1.31 3.055zm-8.676-10.941A33.89 33.89 0 0143.245 4.285c.181 3.647 1.672 5.38 3.164 7.066.994 1.14 2.033 2.28 2.575 4.194a20.739 20.739 0 00-6.959 6.929c-1.536-1.368-3.073-1.823-4.61-2.325-2.078-.593-4.111-1.23-6.054-4.376zM0 52.287h10.845v-3.966H3.751V20.514H0v31.773zm27.023-6.29c0 4.695 1.763 6.7 6.01 6.7 4.248 0 6.056-2.005 6.056-6.7V30.952h-3.66v15.271c0 1.96-.814 2.963-2.396 2.963-1.581 0-2.395-1.002-2.395-2.963v-15.27h-3.615v15.043zm16.043 6.29h3.795V37.472c0-2.143.814-3.237 2.44-3.237 1.944 0 2.396 1.185 2.396 3.738v14.36h3.75V37.472c0-2.143.86-3.237 2.531-3.237 2.034 0 2.44 1.185 2.44 3.738v14.36h3.796V36.059c0-3.556-1.4-5.288-4.474-5.288-1.943 0-3.434.866-4.564 2.598-1.039-1.778-2.304-2.598-4.157-2.598-1.898 0-3.254.82-4.203 2.37V31h-3.75v21.288zM71.083 41.62c0-4.969.588-7.385 2.712-7.385 2.123 0 2.71 2.416 2.71 7.385 0 4.923-.632 7.43-2.71 7.43-2.08 0-2.712-2.461-2.712-7.43zm5.287 10.667h3.615V30.953H76.37v2.051c-.994-1.686-2.214-2.461-3.886-2.461-3.254 0-5.016 3.692-5.016 11.032 0 7.339 1.762 11.077 5.016 11.077 1.672 0 2.892-.82 3.886-2.507v2.142zm7.502 0h3.66V39.432c0-3.237 1.31-4.741 4.157-4.741h.633v-4.148c-2.214.136-3.841 1.14-4.88 3.51v-3.1h-3.57v21.334zm-69.863 0h10.845v-3.966H17.76V20.514h-3.75v31.773zm76.731-3.145c-.587 0-1.13.228-1.581.638-.452.456-.678 1.003-.678 1.596 0 .592.226 1.14.633 1.595.406.456.994.684 1.581.684.588 0 1.13-.228 1.582-.684.407-.41.678-.957.678-1.595 0-.593-.226-1.14-.633-1.596a2.248 2.248 0 00-1.582-.638zm0 .319c.543 0 .995.182 1.356.593.362.364.542.82.542 1.367 0 .502-.18 1.003-.542 1.322-.361.365-.858.547-1.4.547-.498 0-.95-.228-1.311-.593a1.94 1.94 0 01-.542-1.367c0-.502.225-1.003.587-1.368.316-.319.768-.501 1.31-.501zm-.903.638v2.553h.542v-1.049h.407l.497 1.049h.587l-.542-1.14c.361-.09.542-.319.542-.684 0-.455-.361-.683-1.084-.683h-.95v-.046zm.542.32h.316c.407 0 .588.136.588.41 0 .273-.181.41-.588.41h-.316v-.82zm-62.723 6.017l1.31 6.473h1.175l.723-3.602c.046-.227.09-.729.181-1.458.045.638.09 1.14.136 1.459l.678 3.555h1.13l1.31-6.473h-1.266l-.497 3.1c-.09.638-.135 1.23-.135 1.778l-.859-4.924h-1.084l-.859 4.924c-.045-.775-.09-1.413-.18-1.96l-.453-2.918h-1.31v.046zm8.902 6.518h1.31v-6.473h-1.31v6.473zm3.796 0h1.175V60.22c0-.73 0-1.413-.09-2.006.18.593.27.958.316 1.094l1.401 3.647h1.175v-6.473h-1.175v2.507c0 .684.09 1.46.18 2.325-.18-.684-.316-1.14-.406-1.322l-1.31-3.51h-1.311v6.473h.045zm6.643 0h.95c.813 0 1.445-.045 1.987-.501.769-.593 1.13-1.504 1.13-2.735 0-2.188-.994-3.237-2.937-3.237h-1.13v6.473zm1.265-1.23V57.62h.09c.95 0 1.447.684 1.447 2.097 0 1.322-.497 2.006-1.401 2.006h-.136zm9.49-1.915c0-2.188-.904-3.419-2.26-3.419-1.355 0-2.259 1.23-2.259 3.328 0 2.097.859 3.328 2.26 3.328 1.355-.046 2.26-1.231 2.26-3.237zm-2.26 1.96c-.677 0-.993-.684-.993-2.097 0-1.413.316-2.097.994-2.097.678 0 .994.684.994 2.097 0 1.413-.316 2.097-.994 2.097zm4.43-5.333l1.31 6.473h1.175l.723-3.602c.045-.227.09-.729.18-1.458.046.638.09 1.14.136 1.459l.678 3.555h1.13l1.31-6.473H65.3l-.497 3.1c-.09.638-.136 1.23-.136 1.778l-.858-4.924h-1.085l-.859 4.924c-.045-.775-.09-1.413-.18-1.96l-.452-2.918h-1.31v.046zm25.803 6.518h1.355l.226-3.008c.045-.73.136-1.505.136-2.325l.813 5.288h.994l.904-5.288c0 .911.045 1.64.09 2.233l.136 3.01h1.356l-.588-6.474H89.43l-.452 2.462c-.045.364-.135 1.048-.226 2.097a29.754 29.754 0 00-.226-2.097l-.361-2.462h-1.718l-.722 6.564zm-4.7 0h2.711v-1.276H82.29v-5.242h-1.265v6.518zm-3.841 0h1.31v-6.473h-1.31v6.473zm-5.016 0h1.265V60.22h1.4v-1.185h-1.4v-1.368h1.536v-1.185h-2.756v6.473h-.045z" fill="#000" fill-opacity=".3"/></svg>
